X:97
T:Kings of Kerry, The
R:slide
C:Mike Scott, Sharon Shannon & Steve Wickham
H:Sometimes played with 2nd half of 2nd part 2nd time same as end of 1st part
H:Also played in A.
Z:id:hn-slide-97
M:6/8
L:1/8
K:G
B3 BAG | E2G D2G | E2G D2B | A3 AGA |
B2B BAG | E2G D2B | dBG ABA |1 G3 G2A :|2 G3 GBd ||
|: g3 g2d | e2g d2A | B2B BAG | A3 ABd |
g2g ged | e2g d2B | dBG ABA |1 G3 GBd :|2 G3 G2A ||

